X: 10
T: Drunken Landlady, The
Z: UPipes & harp
S: https://thesession.org/tunes/363#setting48913
R: reel
M: 4/4
L: 1/8
K: Edor
|:eA~A2 edBd|eA~A2 edBd|dedB G2BG|Bd~d2 edBd|
eA~A2 edBd|e2 dee dBd|d2ef gbaf|gedB A4:|
|:eaag a2ga|b2gb abge|dedB G2BG|Bd~d2 edBd|
eaag a2ga|b2gb abge|d2ef gbaf|gedB A4:|

%-------------------- TUNE SEPARATOR --------------------%

